X: 1
T: Fiddles and Boxes
C: Nancy Dickson
R: jig
Z: 2010 John Chambers <jc:trillian.mit.edu>
B: Silver Jubilee 25
N: Recommended tune for Roy Goldring's "The Travelling Men"
M: 6/8
L: 1/8
K: C
G \
| "C"c2c "G"dcd | "C"efg g^fg | "Dm"agf "D7"edc | "G"edd "G7"d2G |
| "C"c2c "C7"ede | "F"fga "G7"agf | "C"e2c' "G7"def | "C"ec"F"c [1 "C"c2 :|2 "C"cG"G7"B ||
|: "C"cBc GFE | "C"cBc GFE | "G7"F3 DEF | "G7"GBd fed |
|1 "C"cBc GFE | "C"cBc GFE | "Dm"FED "D7"CB,A, | "G7"G,B,D FGB :|
|2 "C"cBc "C7"edc | "F"AFA "D7"cBA | "C"G3 "Am"Gec | "G7"BAB "C"c2 |]
